X: 38871
T: Sunlight On The Moss
R: jig
M: 6/8
K: Dmajor
DFA DAB|FAB d2A|Bdd AdA|BAF E2A|
DFA DAB|FAB d2A|Bdd AdA|ABA GFE:|
|:Bcd efg|aff b2a|gee a2g|fdd gfe|
fed e2g|aff b2a|gee a2g|fdd gfe|ded cBA:|

